assets/static/img/collections/1.svg

<svg width="133" height="118" viewBox="0 0 173 154" fill="none" xmlns="http://www.w3.org/2000/svg" id="self">
	<path d="M95.9782 89.0711L97.1573 92.7C97.2537 92.9966 97.5302 93.1975 97.8421 93.1975H101.658C101.757 93.1975 101.799 93.325 101.718 93.3836L98.6313 95.6264C98.3789 95.8097 98.2733 96.1347 98.3697 96.4314L99.5488 100.06C99.5796 100.155 99.4712 100.234 99.3905 100.175L96.3036 97.9325C96.0512 97.7492 95.7095 97.7491 95.4571 97.9325L92.3702 100.175C92.2896 100.234 92.1811 100.155 92.212 100.06L93.3911 96.4314C93.4874 96.1347 93.3818 95.8097 93.1295 95.6264L90.0426 93.3836C89.9619 93.325 90.0033 93.1975 90.103 93.1975H93.9187C94.2306 93.1975 94.507 92.9966 94.6034 92.7L95.7826 89.0711C95.8133 88.9763 95.9474 88.9763 95.9782 89.0711Z" stroke="var(--accent-color, #F58220)" stroke-linejoin="round" />
	<path d="M48.1296 48.9631C48.0145 48.9118 47.934 48.9161 47.8234 48.9104C46.5794 48.8502 45.07 48.4893 43.7638 47.9377C43.6958 47.9077 43.6225 47.8915 43.5482 47.8901C43.4739 47.8887 43.4001 47.9021 43.331 47.9295C43.2619 47.9569 43.199 47.9978 43.1458 48.0498C43.0927 48.1017 43.0504 48.1637 43.0215 48.2322C42.9926 48.3007 42.9775 48.3742 42.9773 48.4485C42.9771 48.5228 42.9916 48.5965 43.0201 48.6651C43.0486 48.7338 43.0904 48.7961 43.1432 48.8484C43.196 48.9007 43.2587 48.942 43.3276 48.9698C44.7705 49.5792 46.3821 49.9631 47.7696 50.0298C60.3598 55.6827 68.2046 62.6662 70.4603 70.2297C71.9226 75.1317 71.017 80.1845 67.7697 85.2482C67.73 85.3102 67.7028 85.3793 67.6898 85.4518C67.6768 85.5242 67.6782 85.5985 67.6939 85.6704C67.7096 85.7423 67.7394 85.8104 67.7814 85.8708C67.8235 85.9312 67.877 85.9827 67.939 86.0224C68.2012 86.1902 68.5472 86.112 68.7134 85.8532C72.1448 80.5025 73.094 75.1382 71.5343 69.9092C69.1765 62.0041 61.0835 54.7609 48.1296 48.9631Z" fill="var(--accent-color, #F58220)" />
	<path d="M152.558 78.035C152.057 76.3637 151.035 75.9653 150.006 76.3046C147.369 77.1737 143.121 83.0931 137.361 93.9417C136.211 93.7033 135.028 93.6789 133.962 93.8501C102.114 73.7998 109.164 56.2128 112.089 51.2951C112.295 50.9499 112.513 50.6121 112.743 50.2822C113.567 50.2786 114.414 50.1601 115.118 49.953C120.461 55.4913 128.129 60.849 134.885 57.1587C136.396 56.3344 136.835 55.0739 135.511 53.6592C133.457 51.4635 127.386 48.825 117.395 45.7892C117.94 44.7425 117.709 43.3713 116.23 42.2769C114.591 41.0637 111.498 40.3137 108.834 41.1982C103.7 36.2575 94.2513 29.0378 86.7971 33.9617C85.5262 34.8017 85.1194 35.951 86.1213 37.1227C88.3451 39.7236 96.8495 42.1149 104.659 43.8358C103.754 45.351 104.619 46.9635 106.025 48.0839C94.2225 60.4074 72.778 53.9476 64.0282 50.5604C60.3752 49.1461 56.7816 47.4541 53.877 45.782C53.5766 44.5646 52.596 43.6097 51.7555 42.9869C55.3678 42.9535 68.5515 42.8036 71.0658 40.2313C71.7671 39.5137 71.8484 38.4779 70.6705 37.3718C64.1123 31.2111 53.3657 37.0493 48.7595 40.0696C45.527 38.4905 41.0699 39.1344 39.7393 41.4061C28.248 40.8693 23.9637 41.6936 22.2827 42.5215C20.849 43.2275 20.5262 44.4982 21.7809 45.8495C26.0474 50.4436 32.8715 49.3974 38.7217 47.0733C38.5155 49.3442 38.583 50.707 39.27 51.5422C41.173 53.8582 44.4629 54.5653 47.4606 54.4821C65.1066 63.5947 71.1073 77.9476 59.475 93.4856C58.3854 90.5885 55.3743 83.9429 50.6384 80.0812C47.9907 77.9224 45.1897 76.9524 42.2957 77.1888C40.8032 77.3107 39.1019 77.6478 38.7951 79.1162C38.2311 81.816 43.6103 87.2168 54.78 95.1706C54.2384 95.4992 53.8249 95.903 53.5509 96.363C50.5952 97.3624 50.6244 99.0539 50.3316 101.212C50.0354 103.394 49.7925 105.591 50.7235 106.829C54.0899 111.295 63.6505 111.632 64.6951 107.102C64.7023 107.07 64.7007 107.077 64.7951 106.442C69.5366 112.891 76.2959 118.799 83.7157 115.815C85.6061 115.055 85.9283 113.699 85.109 112.292C82.9505 108.584 72.1381 103.243 68.2377 101.361C77.0401 96.2014 78.6074 97.9685 81.1504 100.836C83.1321 103.071 85.5982 105.852 91.8365 106.669C110.871 109.159 107.317 99.6905 111.444 98.3369C113.755 97.5785 118.645 99.1676 127.248 103.483C122.347 107.634 117.719 113.557 120.145 119.995C120.868 121.916 122.364 122.328 124.241 120.566C127.046 117.933 130.564 110.922 132.244 107.437C135.707 110.191 143.782 110.813 144.782 106.479L145.668 102.577C146.233 100.502 144.592 98.6261 142.723 97.5196C142.449 96.9708 142.035 96.4409 141.498 95.9557C146.977 92.566 154.969 86.0664 152.558 78.035ZM87.4152 34.8964C94.3365 30.3247 103.473 37.5373 108.303 42.2438C108.384 42.3225 108.487 42.3749 108.598 42.394C108.71 42.4131 108.824 42.3981 108.927 42.3509C112.75 40.8757 118.168 43.5932 116.096 45.6817C115.752 45.9969 115.919 46.5511 116.357 46.6449C127.792 50.0774 133.172 52.7526 134.703 54.3872C135.428 55.1619 135.32 55.6443 134.348 56.1747C127.395 59.9728 119.041 52.9736 113.906 46.9506C113.844 46.8784 113.765 46.8231 113.676 46.7899C113.587 46.7568 113.491 46.7469 113.398 46.7612C110.404 47.0988 107.176 45.6007 107.304 43.949C107.335 43.5439 107.288 43.2519 106.888 43.1679C103.738 42.5078 89.3409 39.3154 86.9997 36.4954C86.4416 35.8238 86.6694 35.3895 87.4152 34.8964ZM22.6021 45.0868C21.9212 44.3539 21.9434 43.9325 22.8425 43.4982C24.623 42.638 29.7996 42.0441 40.0512 42.5422C40.1955 42.5501 40.3597 42.4904 40.4804 42.3643C40.6749 42.1595 40.7903 41.3131 42.4293 40.718C44.2833 40.0447 46.722 40.2349 48.4978 41.1912C48.7228 41.3125 48.9371 41.2965 49.1086 41.1825C53.3275 38.3717 63.7988 32.4535 69.9039 38.1882C70.6716 38.91 70.5576 39.2714 70.0395 39.6522C68.5215 40.7687 62.8232 41.8342 50.6028 41.8732C50.2041 41.8732 49.9197 42.2993 50.1015 42.6759C51.4358 45.4385 45.4018 47.0195 41.8802 44.7198C41.6137 44.5458 41.3876 44.6601 41.2478 44.7254C35.104 47.5919 27.229 50.0693 22.6021 45.0868ZM63.5976 106.87C62.7963 110.204 54.522 110.007 51.6182 106.155C51.0533 105.404 51.1382 103.817 51.3335 102.199C52.4385 103.726 54.4872 104.8 56.3246 105.342C56.4664 105.381 56.618 105.364 56.7467 105.292C56.8754 105.221 56.9709 105.102 57.0125 104.961C57.0542 104.82 57.0386 104.668 56.9693 104.538C56.8999 104.408 56.7823 104.311 56.6418 104.267C54.1524 103.532 51.6406 101.875 51.6403 99.8465C51.6739 98.7838 52.4394 98.1296 53.1614 97.746C53.1253 101.363 58.6958 103.588 62.4757 103.015C62.9205 103.728 63.381 104.431 63.857 105.124L63.5976 106.87ZM83.2971 114.775C75.2458 118.013 67.7779 109.501 63.2277 102.102C63.1649 102.001 63.0721 101.924 62.9626 101.879C62.853 101.834 62.7322 101.826 62.6172 101.853C61.5388 102.068 60.3161 102.032 59.0783 101.746C56.0523 101.048 54.3768 99.2825 54.2852 97.8996C54.2166 96.8576 55.075 96.1686 56.0473 95.7974C56.5101 95.6525 56.5726 95.0459 56.1837 94.7932C45.5318 87.274 39.4418 81.4997 39.892 79.3457C40.0697 78.4928 41.8006 78.3317 42.6728 78.2883C52.9403 77.7775 58.6787 94.5343 58.8258 95.0078C58.8496 95.1246 58.91 95.2308 58.9983 95.3109C59.0866 95.391 59.1981 95.4409 59.3167 95.4533C60.2902 95.5534 61.2421 95.8054 62.1376 96.2003C63.9559 97.0052 66.0105 98.7031 65.0503 100.438C64.9812 100.566 64.9648 100.717 65.0046 100.857C65.0445 100.998 65.1374 101.117 65.2638 101.191C65.4283 101.285 81.9024 108.746 84.1741 112.914C84.6918 113.864 84.32 114.364 83.2971 114.775ZM111.094 97.2714C105.909 98.9721 110.629 107.997 91.9813 105.557C86.1586 104.795 83.8463 102.187 81.9881 100.092C78.9302 96.6429 76.7095 94.9694 67.0222 100.779C66.7731 100.661 66.5238 100.544 66.2742 100.427C66.5821 99.5075 66.3949 98.5972 65.8609 97.7603C83.6807 82.2391 99.5496 80.3073 118.846 91.2873C118.91 91.3237 118.98 91.3471 119.053 91.3563C119.126 91.3655 119.201 91.3601 119.272 91.3406C119.343 91.3212 119.409 91.2879 119.467 91.2427C119.525 91.1976 119.574 91.1414 119.61 91.0774C119.647 91.0135 119.67 90.9429 119.679 90.8699C119.688 90.7969 119.683 90.7228 119.664 90.6518C119.644 90.5808 119.611 90.5144 119.566 90.4563C119.521 90.3981 119.464 90.3495 119.4 90.3131C98.9108 78.6542 82.3784 81.904 65.1554 96.8889C64.0537 95.7775 62.2776 94.8108 60.157 94.441C72.604 78.0896 66.2005 62.845 47.8517 53.4225C47.7049 53.3471 47.5785 53.3578 47.4155 53.362C44.1314 53.4483 41.5485 52.5497 40.1358 50.8305C39.6444 50.2326 39.6712 48.7617 39.8954 46.5844C40.2465 46.4323 40.6978 46.2381 41.5493 45.8251C45.0474 47.8713 50.5703 47.0212 51.3206 44.063C51.9928 44.5993 52.6876 45.3488 52.8243 46.2266C52.8507 46.3936 52.9501 46.5396 53.0964 46.6245C56.0873 48.3658 59.8261 50.1346 63.6239 51.6052C78.2118 57.252 96.8147 59.9451 107.28 48.3792C107.334 48.3196 107.375 48.249 107.399 48.1722C107.423 48.0955 107.431 48.0145 107.421 47.9346C107.411 47.8548 107.384 47.778 107.342 47.7095C107.3 47.6409 107.243 47.5823 107.176 47.5376C105.837 46.6407 104.772 45.2463 105.86 44.0961L106.183 44.1645C106.217 44.8473 106.546 45.506 107.148 46.0857C108.312 47.207 110.66 48.1041 113.243 47.8984C113.569 48.2755 113.9 48.6477 114.236 49.015C113.656 49.1262 113.065 49.1741 112.474 49.1579C112.383 49.1551 112.293 49.1745 112.211 49.2144C112.129 49.2543 112.058 49.3136 112.005 49.387C111.692 49.8178 111.399 50.2628 111.126 50.7204C109.352 53.7032 106.745 59.9518 109.216 68.2864C111.893 77.3119 119.723 86.0406 132.493 94.244C129.763 95.3247 129.076 98.1313 131.315 100.415C130.245 101.136 129.204 101.9 128.194 102.704C118.788 97.9539 113.821 96.3765 111.094 97.2714ZM140.326 104.468C140.18 104.477 140.044 104.543 139.946 104.651C139.848 104.759 139.796 104.901 139.801 105.046C139.806 105.192 139.867 105.33 139.972 105.431C140.077 105.533 140.218 105.589 140.364 105.588C141.868 105.537 143.127 105.197 144.053 104.623L143.689 106.228C142.926 109.535 135.559 108.903 132.742 106.39C133.37 105.062 133.982 103.726 134.579 102.384C138.12 103.565 143.081 102.763 143.119 99.1528C145.975 101.491 144.739 104.319 140.326 104.468ZM140.239 95.4079C140.166 95.4516 140.104 95.5114 140.057 95.5827C140.011 95.654 139.981 95.735 139.97 95.8195C139.96 95.9039 139.969 95.9897 139.996 96.0703C140.024 96.1508 140.069 96.224 140.13 96.2843C140.219 96.3743 140.94 96.8301 141.465 97.588C142.455 99.018 142.009 100.455 140.595 101.193C138.928 102.064 136.121 101.88 134.507 101.163C134.4 101.116 134.282 101.103 134.169 101.127C134.055 101.15 133.951 101.209 133.873 101.294C133.711 101.467 133.377 102.451 131.573 106.24C131.559 106.264 126.589 116.948 123.404 119.848C122.156 120.984 121.6 120.68 121.194 119.6C117.501 109.8 132.305 101.266 132.655 100.84C132.845 100.607 132.816 100.246 132.575 100.051C131.445 99.1276 130.925 98.043 131.148 97.0755C131.661 94.8554 135.24 94.5438 137.514 95.1274C137.636 95.1575 137.765 95.1462 137.88 95.0952C137.995 95.0443 138.09 94.9566 138.15 94.8459C144.519 82.7972 148.483 77.9899 150.261 77.3799C150.953 77.1426 151.251 77.5777 151.485 78.3575C153.779 86.0014 145.424 92.3211 140.239 95.4079Z" fill="var(--main-color, #377CB5)" />
</svg>

<svg xmlns="http://www.w3.org/2000/svg" id="self" width="133" height="118" fill="none" viewBox="0 0 173 154"><path stroke="var(--accent-color, #F58220)" stroke-linejoin="round" d="m95.978 89.071 1.18 3.629a.72.72 0 0 0 .684.498h3.816c.099 0 .141.127.06.186l-3.087 2.242a.72.72 0 0 0-.261.805l1.179 3.629a.103.103 0 0 1-.159.115l-3.086-2.242a.72.72 0 0 0-.847 0l-3.087 2.242a.103.103 0 0 1-.158-.115l1.18-3.629a.72.72 0 0 0-.263-.805l-3.086-2.242a.103.103 0 0 1 .06-.186h3.816a.72.72 0 0 0 .684-.498l1.18-3.629a.103.103 0 0 1 .195 0Z"/><path fill="var(--accent-color, #F58220)" d="M48.13 48.963c-.116-.051-.196-.047-.307-.053-1.244-.06-2.753-.42-4.06-.972a.56.56 0 1 0-.435 1.032c1.442.61 3.054.993 4.442 1.06 12.59 5.653 20.435 12.636 22.69 20.2 1.463 4.902.557 9.954-2.69 15.018a.561.561 0 1 0 .943.605c3.432-5.35 4.381-10.715 2.821-15.944-2.358-7.905-10.45-15.148-23.404-20.946"/><path fill="var(--main-color, #377CB5)" d="M152.558 78.035c-.501-1.671-1.523-2.07-2.552-1.73-2.637.869-6.885 6.788-12.645 17.637a9.5 9.5 0 0 0-3.399-.092c-31.848-20.05-24.798-37.637-21.873-42.555q.309-.518.654-1.013a8.8 8.8 0 0 0 2.375-.329c5.343 5.538 13.011 10.896 19.767 7.206 1.511-.825 1.95-2.085.626-3.5-2.054-2.195-8.125-4.834-18.116-7.87.545-1.047.314-2.418-1.165-3.512-1.639-1.213-4.732-1.963-7.396-1.079-5.134-4.94-14.583-12.16-22.037-7.236-1.27.84-1.678 1.989-.676 3.16 2.224 2.602 10.729 4.993 18.538 6.714-.905 1.515-.04 3.128 1.366 4.248-11.803 12.323-33.247 5.864-41.997 2.476-3.653-1.414-7.246-3.106-10.151-4.778-.3-1.217-1.281-2.172-2.122-2.795 3.613-.034 16.797-.183 19.31-2.756.702-.717.783-1.753-.394-2.86-6.559-6.16-17.305-.322-21.912 2.699-3.232-1.58-7.69-.936-9.02 1.336-11.491-.537-15.775.288-17.456 1.116-1.434.706-1.757 1.976-.502 3.328 4.266 4.594 11.09 3.547 16.94 1.223-.205 2.271-.138 3.634.549 4.47 1.903 2.315 5.193 3.022 8.19 2.94 17.647 9.112 23.647 23.465 12.015 39.003-1.09-2.898-4.1-9.543-8.837-13.405-2.647-2.159-5.448-3.129-8.342-2.892-1.493.122-3.194.459-3.5 1.927-.565 2.7 4.814 8.1 15.984 16.055-.542.328-.955.732-1.23 1.192-2.955 1-2.926 2.69-3.218 4.849-.297 2.182-.54 4.379.392 5.617 3.366 4.466 12.927 4.803 13.971.273.007-.032.006-.025.1-.66 4.742 6.449 11.5 12.357 18.92 9.373 1.891-.76 2.213-2.116 1.394-3.523-2.158-3.708-12.97-9.049-16.871-10.931 8.802-5.16 10.37-3.392 12.912-.525 1.982 2.235 4.448 5.016 10.686 5.833 19.035 2.49 15.481-6.978 19.608-8.332 2.311-.758 7.201.83 15.804 5.146-4.901 4.151-9.529 10.074-7.103 16.512.723 1.921 2.219 2.333 4.096.571 2.805-2.633 6.323-9.644 8.003-13.129 3.463 2.754 11.538 3.376 12.538-.958l.886-3.902c.565-2.075-1.076-3.95-2.945-5.057-.274-.55-.688-1.08-1.225-1.564 5.479-3.39 13.471-9.89 11.06-17.921M87.415 34.896c6.921-4.571 16.058 2.641 20.888 7.348a.56.56 0 0 0 .624.107c3.823-1.475 9.241 1.242 7.169 3.33a.56.56 0 0 0 .261.964c11.435 3.432 16.815 6.108 18.346 7.742.725.775.617 1.257-.355 1.788-6.953 3.798-15.307-3.201-20.442-9.224a.56.56 0 0 0-.508-.19c-2.994.338-6.222-1.16-6.094-2.812.031-.405-.016-.697-.416-.781-3.15-.66-17.547-3.853-19.888-6.673-.558-.671-.33-1.105.415-1.599m-64.813 10.19c-.68-.732-.659-1.154.24-1.588 1.781-.86 6.958-1.454 17.21-.956a.57.57 0 0 0 .428-.178c.195-.204.31-1.05 1.95-1.646 1.853-.673 4.292-.483 6.068.473.225.121.44.105.61-.009 4.22-2.81 14.69-8.729 20.796-2.994.768.722.654 1.083.136 1.464-1.519 1.117-7.217 2.182-19.437 2.221a.56.56 0 0 0-.502.803c1.335 2.762-4.7 4.343-8.22 2.044-.267-.174-.493-.06-.633.005-6.144 2.867-14.019 5.344-18.646.362m40.996 61.784c-.802 3.334-9.076 3.137-11.98-.715-.565-.751-.48-2.338-.285-3.956 1.105 1.527 3.154 2.601 4.992 3.143a.56.56 0 0 0 .317-1.075c-2.49-.735-5.001-2.392-5.002-4.42.034-1.063.8-1.717 1.521-2.101-.036 3.617 5.535 5.842 9.315 5.269q.667 1.07 1.381 2.109zm19.7 7.905c-8.052 3.238-15.52-5.274-20.07-12.673a.56.56 0 0 0-.61-.249c-1.08.215-2.302.179-3.54-.107-3.026-.698-4.701-2.463-4.793-3.846-.068-1.042.79-1.731 1.762-2.103a.56.56 0 0 0 .137-1.004C45.532 87.274 39.442 81.5 39.892 79.346c.178-.853 1.909-1.014 2.78-1.058 10.268-.51 16.007 16.246 16.154 16.72a.56.56 0 0 0 .49.445c.974.1 1.926.352 2.822.747 1.818.805 3.872 2.503 2.912 4.238a.56.56 0 0 0 .214.753c.164.094 16.638 7.555 18.91 11.723.518.95.146 1.45-.877 1.861m27.796-17.504c-5.185 1.701-.465 10.726-19.113 8.286-5.822-.762-8.135-3.37-9.993-5.465-3.058-3.45-5.278-5.123-14.966.687l-.748-.352c.308-.92.12-1.83-.413-2.667 17.82-15.52 33.689-17.453 52.985-6.473a.56.56 0 1 0 .554-.974c-20.49-11.659-37.022-8.409-54.245 6.576-1.101-1.111-2.877-2.078-4.998-2.448 12.447-16.351 6.044-31.596-12.305-41.018-.147-.076-.273-.065-.436-.061-3.285.086-5.867-.812-7.28-2.532-.492-.597-.465-2.068-.24-4.246.35-.152.802-.346 1.653-.759 3.498 2.046 9.021 1.196 9.772-1.762.672.536 1.367 1.286 1.503 2.164a.56.56 0 0 0 .272.398c2.991 1.74 6.73 3.51 10.528 4.98 14.588 5.647 33.19 8.34 43.656-3.226a.556.556 0 0 0 .062-.67.6.6 0 0 0-.166-.171c-1.339-.897-2.404-2.292-1.316-3.442l.323.069c.034.682.363 1.341.965 1.92 1.164 1.122 3.512 2.02 6.095 1.813q.489.566.993 1.117a8.2 8.2 0 0 1-1.762.143.56.56 0 0 0-.469.229q-.47.646-.879 1.333c-1.774 2.983-4.381 9.232-1.91 17.566 2.677 9.026 10.507 17.755 23.277 25.958-2.73 1.08-3.417 3.887-1.178 6.171a49 49 0 0 0-3.121 2.289c-9.406-4.75-14.373-6.328-17.1-5.433m29.232 7.197a.56.56 0 0 0 .038 1.12c1.504-.051 2.763-.391 3.689-.965l-.364 1.605c-.763 3.307-8.13 2.675-10.947.162q.942-1.993 1.837-4.006c3.541 1.181 8.502.379 8.54-3.231 2.856 2.338 1.62 5.166-2.793 5.315m-.087-9.06a.57.57 0 0 0-.269.412.557.557 0 0 0 .16.465c.089.09.81.545 1.335 1.303.99 1.43.544 2.867-.87 3.605-1.667.871-4.474.687-6.088-.03a.55.55 0 0 0-.634.131c-.162.173-.496 1.157-2.3 4.946-.014.024-4.984 10.708-8.169 13.608-1.248 1.136-1.804.832-2.21-.248-3.693-9.8 11.111-18.334 11.461-18.76a.566.566 0 0 0-.08-.789c-1.13-.923-1.65-2.008-1.427-2.975.513-2.22 4.092-2.532 6.366-1.949a.57.57 0 0 0 .636-.281c6.369-12.049 10.333-16.856 12.111-17.466.692-.237.99.198 1.224.978 2.294 7.643-6.061 13.963-11.246 17.05"/></svg>
